dist/images/icons/icon-cart.svg

<svg width="21" height="20" viewBox="0 0 21 20" fill="none" xmlns="http://www.w3.org/2000/svg">
<path d="M1 1L3.08 1.35582L4.04301 12.6957C4.12001 13.6218 4.90301 14.3325 5.84301 14.3295H16.752C17.649 14.3315 18.41 13.6791 18.537 12.8014L19.486 6.31954C19.592 5.59505 19.083 4.92294 18.351 4.81817C18.287 4.80927 3.414 4.80433 3.414 4.80433" stroke="black" stroke-width="1.5" stroke-linecap="round" stroke-linejoin="round"/>
<path d="M12.375 8.45758H15.1479" stroke="black" stroke-width="1.5" stroke-linecap="round" stroke-linejoin="round"/>
<path fill-rule="evenodd" clip-rule="evenodd" d="M5.4043 17.7559C5.70527 17.7559 5.94824 17.9971 5.94824 18.2938C5.94824 18.5915 5.70527 18.8328 5.4043 18.8328C5.10333 18.8328 4.86035 18.5915 4.86035 18.2938C4.86035 17.9971 5.10333 17.7559 5.4043 17.7559Z" fill="black" stroke="black" stroke-width="1.5" stroke-linecap="round" stroke-linejoin="round"/>
<path fill-rule="evenodd" clip-rule="evenodd" d="M16.6846 17.7559C16.9856 17.7559 17.2296 17.9971 17.2296 18.2938C17.2296 18.5915 16.9856 18.8328 16.6846 18.8328C16.3836 18.8328 16.1406 18.5915 16.1406 18.2938C16.1406 17.9971 16.3836 17.7559 16.6846 17.7559Z" fill="black" stroke="black" stroke-width="1.5" stroke-linecap="round" stroke-linejoin="round"/>
</svg>

<svg width="21" height="20" fill="none" xmlns="http://www.w3.org/2000/svg"><path d="M1 1l2.08.356.963 11.34a1.79 1.79 0 001.8 1.633h10.909a1.794 1.794 0 001.785-1.528l.949-6.481a1.328 1.328 0 00-1.135-1.502c-.064-.009-14.937-.014-14.937-.014m8.961 3.654h2.773" stroke="#000" stroke-width="1.5" stroke-linecap="round" stroke-linejoin="round"/><path fill-rule="evenodd" clip-rule="evenodd" d="M5.404 17.756a.54.54 0 01.544.538.541.541 0 01-.544.539.541.541 0 01-.544-.54.54.54 0 01.544-.537zm11.281 0c.3 0 .545.241.545.538a.542.542 0 01-.545.539.541.541 0 01-.544-.54.54.54 0 01.544-.537z" fill="#000" stroke="#000" stroke-width="1.5" stroke-linecap="round" stroke-linejoin="round"/></svg>
